icons/skip-backward.svg

<?xml version="1.0" standalone="no"?><!-- Generator: Gravit.io --><svg xmlns="http://www.w3.org/2000/svg" xmlns:xlink="http://www.w3.org/1999/xlink" width="96" height="96"><path d=" M 27.797749694637318 53.533840030830895 L 55.068378415545055 69.20205580502514 L 82.73567082693872 85.16776934708386 L 84.71898927936837 85.76276488281276 C 85.21481889247579 85.96109672805572 85.80981442820467 86.0602626506772 86.40480996393359 85.96109672805572 C 87.89229880325581 85.76276488281276 89.37978764257807 84.9694375018409 90.37144686879289 83.7794464303831 C 91.36310609500771 82.49028943630383 91.85893570811513 80.90363467436012 91.75976978549365 79.41614583503787 L 91.75976978549365 47.98054836402787 L 91.75976978549365 16.64411681563934 C 91.85893570811513 15.057462053695616 91.36310609500771 13.470807291751896 90.37144686879289 12.280816220294103 C 89.37978764257807 10.991659226214828 87.89229880325581 10.198331845242967 86.40480996393359 10.000000000000002 C 85.80981442820467 10.000000000000002 85.21481889247579 10.000000000000002 84.71898927936837 10.198331845242967 L 82.73567082693872 10.793327380971864 L 55.068378415545055 26.75904092303057 L 27.797749694637318 42.52642261984632 C 25.715265319586194 43.51808184606115 24.32694240288542 45.69973214373376 24.227776480263955 47.98054836402787 C 24.32694240288542 50.360530506943455 25.715265319586194 52.44301488199459 27.797749694637318 53.533840030830895 Z  M 83.82649597577503 19.321596726419372 L 59.03501532040436 33.70065550653436 L 34.14436874241221 47.98054836402787 L 59.03501532040436 62.359607144142856 L 83.82649597577503 76.63950000163635 L 83.82649597577503 47.98054836402787 L 83.82649597577503 19.321596726419372 Z  M 12.22777648026397 14.222222222222223 C 12.22777648026397 13.061111111111112 11.827776480263964 12.005555555555556 11.027776480263967 11.266666666666667 C 10.327776480263964 10.422222222222224 9.327776480263964 10.000000000000002 8.22777648026397 10.000000000000002 C 7.127776480263975 10.000000000000002 6.127776480263975 10.422222222222224 5.427776480263972 11.266666666666667 C 4.627776480263975 12.005555555555556 4.2277764802639695 13.061111111111112 4.2277764802639695 14.222222222222223 L 4.2277764802639695 81.77777777777777 C 4.2277764802639695 82.93888888888888 4.627776480263975 83.99444444444444 5.427776480263972 84.73333333333333 C 6.127776480263975 85.57777777777777 7.127776480263975 86 8.22777648026397 86 C 9.327776480263964 86 10.327776480263964 85.57777777777777 11.027776480263967 84.73333333333333 C 11.827776480263964 83.99444444444444 12.22777648026397 82.93888888888888 12.22777648026397 81.77777777777777 L 12.22777648026397 14.222222222222223 Z " fill-rule="evenodd" fill="#454545" stroke="none"/><mask id="_mask_N9TFicfYoEQz0XsQTx0UZHWc136Aj161"><path d=" M 27.797749694637318 53.533840030830895 L 55.068378415545055 69.20205580502514 L 82.73567082693872 85.16776934708386 L 84.71898927936837 85.76276488281276 C 85.21481889247579 85.96109672805572 85.80981442820467 86.0602626506772 86.40480996393359 85.96109672805572 C 87.89229880325581 85.76276488281276 89.37978764257807 84.9694375018409 90.37144686879289 83.7794464303831 C 91.36310609500771 82.49028943630383 91.85893570811513 80.90363467436012 91.75976978549365 79.41614583503787 L 91.75976978549365 47.98054836402787 L 91.75976978549365 16.64411681563934 C 91.85893570811513 15.057462053695616 91.36310609500771 13.470807291751896 90.37144686879289 12.280816220294103 C 89.37978764257807 10.991659226214828 87.89229880325581 10.198331845242967 86.40480996393359 10.000000000000002 C 85.80981442820467 10.000000000000002 85.21481889247579 10.000000000000002 84.71898927936837 10.198331845242967 L 82.73567082693872 10.793327380971864 L 55.068378415545055 26.75904092303057 L 27.797749694637318 42.52642261984632 C 25.715265319586194 43.51808184606115 24.32694240288542 45.69973214373376 24.227776480263955 47.98054836402787 C 24.32694240288542 50.360530506943455 25.715265319586194 52.44301488199459 27.797749694637318 53.533840030830895 Z  M 83.82649597577503 19.321596726419372 L 59.03501532040436 33.70065550653436 L 34.14436874241221 47.98054836402787 L 59.03501532040436 62.359607144142856 L 83.82649597577503 76.63950000163635 L 83.82649597577503 47.98054836402787 L 83.82649597577503 19.321596726419372 Z  M 12.22777648026397 14.222222222222223 C 12.22777648026397 13.061111111111112 11.827776480263964 12.005555555555556 11.027776480263967 11.266666666666667 C 10.327776480263964 10.422222222222224 9.327776480263964 10.000000000000002 8.22777648026397 10.000000000000002 C 7.127776480263975 10.000000000000002 6.127776480263975 10.422222222222224 5.427776480263972 11.266666666666667 C 4.627776480263975 12.005555555555556 4.2277764802639695 13.061111111111112 4.2277764802639695 14.222222222222223 L 4.2277764802639695 81.77777777777777 C 4.2277764802639695 82.93888888888888 4.627776480263975 83.99444444444444 5.427776480263972 84.73333333333333 C 6.127776480263975 85.57777777777777 7.127776480263975 86 8.22777648026397 86 C 9.327776480263964 86 10.327776480263964 85.57777777777777 11.027776480263967 84.73333333333333 C 11.827776480263964 83.99444444444444 12.22777648026397 82.93888888888888 12.22777648026397 81.77777777777777 L 12.22777648026397 14.222222222222223 Z " fill-rule="evenodd" fill="white" stroke="none"/></mask><path d=" M 27.797749694637318 53.533840030830895 L 55.068378415545055 69.20205580502514 L 82.73567082693872 85.16776934708386 L 84.71898927936837 85.76276488281276 C 85.21481889247579 85.96109672805572 85.80981442820467 86.0602626506772 86.40480996393359 85.96109672805572 C 87.89229880325581 85.76276488281276 89.37978764257807 84.9694375018409 90.37144686879289 83.7794464303831 C 91.36310609500771 82.49028943630383 91.85893570811513 80.90363467436012 91.75976978549365 79.41614583503787 L 91.75976978549365 47.98054836402787 L 91.75976978549365 16.64411681563934 C 91.85893570811513 15.057462053695616 91.36310609500771 13.470807291751896 90.37144686879289 12.280816220294103 C 89.37978764257807 10.991659226214828 87.89229880325581 10.198331845242967 86.40480996393359 10.000000000000002 C 85.80981442820467 10.000000000000002 85.21481889247579 10.000000000000002 84.71898927936837 10.198331845242967 L 82.73567082693872 10.793327380971864 L 55.068378415545055 26.75904092303057 L 27.797749694637318 42.52642261984632 C 25.715265319586194 43.51808184606115 24.32694240288542 45.69973214373376 24.227776480263955 47.98054836402787 C 24.32694240288542 50.360530506943455 25.715265319586194 52.44301488199459 27.797749694637318 53.533840030830895 Z  M 83.82649597577503 19.321596726419372 L 59.03501532040436 33.70065550653436 L 34.14436874241221 47.98054836402787 L 59.03501532040436 62.359607144142856 L 83.82649597577503 76.63950000163635 L 83.82649597577503 47.98054836402787 L 83.82649597577503 19.321596726419372 Z  M 12.22777648026397 14.222222222222223 C 12.22777648026397 13.061111111111112 11.827776480263964 12.005555555555556 11.027776480263967 11.266666666666667 C 10.327776480263964 10.422222222222224 9.327776480263964 10.000000000000002 8.22777648026397 10.000000000000002 C 7.127776480263975 10.000000000000002 6.127776480263975 10.422222222222224 5.427776480263972 11.266666666666667 C 4.627776480263975 12.005555555555556 4.2277764802639695 13.061111111111112 4.2277764802639695 14.222222222222223 L 4.2277764802639695 81.77777777777777 C 4.2277764802639695 82.93888888888888 4.627776480263975 83.99444444444444 5.427776480263972 84.73333333333333 C 6.127776480263975 85.57777777777777 7.127776480263975 86 8.22777648026397 86 C 9.327776480263964 86 10.327776480263964 85.57777777777777 11.027776480263967 84.73333333333333 C 11.827776480263964 83.99444444444444 12.22777648026397 82.93888888888888 12.22777648026397 81.77777777777777 L 12.22777648026397 14.222222222222223 Z " fill-rule="evenodd" fill="none" stroke="none" stroke-width="16" mask="url(#_mask_N9TFicfYoEQz0XsQTx0UZHWc136Aj161)"/></svg>

<svg xmlns="http://www.w3.org/2000/svg" width="96" height="96"><path d="M27.798 53.534l27.27 15.668 27.668 15.966 1.983.595c.496.198 1.09.297 1.686.198 1.487-.198 2.975-.992 3.966-2.182.992-1.289 1.488-2.875 1.389-4.363V16.644c.099-1.587-.397-3.173-1.389-4.363A6.073 6.073 0 0 0 86.405 10c-.595 0-1.19 0-1.686.198l-1.983.595L55.068 26.76l-27.27 15.767c-2.083.992-3.471 3.174-3.57 5.455.099 2.38 1.487 4.462 3.57 5.553zm56.028-34.212L59.035 33.7l-24.89 14.28 24.89 14.379 24.791 14.28V19.322zm-71.598-5.1c0-1.16-.4-2.216-1.2-2.955-.7-.845-1.7-1.267-2.8-1.267-1.1 0-2.1.422-2.8 1.267-.8.739-1.2 1.794-1.2 2.955v67.556c0 1.16.4 2.216 1.2 2.955.7.845 1.7 1.267 2.8 1.267 1.1 0 2.1-.422 2.8-1.267.8-.739 1.2-1.794 1.2-2.955V14.222z" fill-rule="evenodd" fill="#454545"/></svg>
